!!!!SEGMENT: pl-wtm--r-244-n--003_noskowski-zygmunt--piesni-ludowe-kochalem.krn
!!!cenid: 18xx:2147
!!!COM: Noskowski, Zygmunt
!!!COM-rismID: pe106604
!!!CDT: 1846/05/02-1909/07/23
!!!CNT: Polish
!!!GTL: Pieśni ludowe
!!!OTL: Kochałem
!!!PDT:
!!!AGN: Secular; Song
!!!SMS-siglum: PL-Wtm
!!!SMS-shelfmark: R 244/N
!!!SMS-shelfwork: 003 G
!!!SMS-variant:
!!!SMS-altvar:
!!!NIFC-rismSourceID: 1001101056
!!!NIFC-islandoraID:
!!!URL-pdf-islandora:
!!!URL-scan:
!!!ONB-nifc: UWAGA: w zbiorze: 1. Matulu moja!, 2. Terli pęc!, 3. Kochałem!
!!!AIN: 1 bass 1 tenor
!!!key:
!!!OMD: Allegretto moderato.
!!!OMD-mod: Krakowiak. Allegretto moderato
**kern	**dynam	**text	**text	**mod-text	**mod-text	**kern	**dynam	**text	**text	**mod-text	**mod-text
*part2	*part2	*	*	*part1	*part1	*part1	*part1	*part1	*part1	*part1	*part1
*staff2	*	*	*	*staff1	*staff1	*staff1	*	*staff1	*staff1	*staff1	*staff1
*Ibass	*	*	*	*	*	*Itenor	*	*	*	*	*
*I"Basy	*	*	*	*	*	*I"Tenory	*	*	*	*	*
*mI"Basso	*	*	*	*	*	*mI"Tenore	*	*	*	*	*
*I'B	*	*	*	*	*	*I'T	*	*	*	*	*
*clefF4	*	*	*	*	*	*clefG2	*	*	*	*	*
*	*	*	*	*	*	*ITrd7c12	*	*	*	*	*
*k[b-e-a-]	*	*	*	*	*	*k[b-e-a-]	*	*	*	*	*
*E-:	*	*	*	*	*	*E-:	*	*	*	*	*
*M2/4	*	*	*	*	*	*M2/4	*	*	*	*	*
*>[A,B,B,A]	*>[A,B,B,A]	*	*	*>[A,B,B,A]	*>[A,B,B,A]	*>[A,B,B,A]	*>[A,B,B,A]	*>[A,B,B,A]	*>[A,B,B,A]	*>[A,B,B,A]	*>[A,B,B,A]
=1	=1	=1	=1	=1	=1	=1	=1	=1	=1	=1	=1
*>A	*>A	*	*	*>A	*>A	*>A	*>A	*>A	*>A	*>A	*>A
*^	*	*	*	*	*	*^	*	*	*	*	*
!	!LO:TX:t=P:problem=dwie oddzielne nuty	!LO:DY:rj	!	!	!	!	!	!LO:TX:a:t=Kochałem! (Krakowiak):mod=	!LO:DY:b:rj	!	!	!	!
8E-/	(16E-\LL	p	.	.	Hej,	.	8B-/	8G\	p	Hej,	.	Hej,	.
.	16C\JJ)	.	.	.	.	.	.	.	.	.	.	.	.
4E-/	4BB-\	.	.	.	da-	.	4B-/	4G\	.	da-	.	da-	.
8E-/	(16C\LL	.	.	.	-na,	.	8B-/	8G\	.	-na	.	-na,	.
.	16D\JJ)	.	.	.	.	.	.	.	.	.	.	.	.
=2	=2	=2	=2	=2	=2	=2	=2	=2	=2	=2	=2	=2	=2
8E-/	8C\	.	.	.	hej-	.	8B-/	8G\	.	hej-	.	hej-	.
8E-/	8C\	.	.	.	-że,	.	8c/	8G\	.	-że,	.	-że,	.
4E-^^/	4E-\	.	.	.	ha!	.	4B-^^/	4G\	.	ha!	.	ha!	.
=3	=3	=3	=3	=3	=3	=3	=3	=3	=3	=3	=3	=3	=3
*	*	*^	*	*	*	*	*	*	*^	*	*	*	*
!	!LO:TX:t=P:problem=dwie oddzielne nuty	!	!	!	!	!	!	!	!	!	!	!	!	!	!
8E-/	(16E-\LL	.	.	.	.	Hej,	.	8B-/	8G\	.	.	Hej	.	Hej,	.
.	16C\JJ)	.	.	.	.	.	.	.	.	.	.	.	.	.	.
4E-/	4BB-\	.	.	.	.	da-	.	4B-/	4G\	.	.	da-	.	da-	.
!	!	!LO:MO:mod=!null:null	!LO:MO:mod=!null:null	!	!	!	!	!	!	!LO:MO:mod=!null:null	!LO:MO:mod=!null:null	!	!	!	!
!	!	!LO:HP:a:t=cresc	!LO:HP:t=cresc	!	!	!	!	!	!	!LO:HP:t=cresc	!LO:HP:b:t=cresc	!	!	!	!
!	!	!	!LO:MO:mod=!null:null	!	!	!	!	!	!	!	!LO:MO:mod=!null:null	!	!	!	!
!	!LO:SIC:s=(16C\LL:v	!	!	!	!	!	!	!	!	!	!	!	!	!	!
8E-/	16C\LL	<	<	.	.	-na,	.	8B-/	8G\	<	<	-na,	.	-na,	.
!	!LO:SIC:s=16D\JJ):v	!	!	!	!	!	!	!	!	!	!	!	!	!	!
.	16D\JJ	.	.	.	.	.	.	.	.	.	.	.	.	.	.
*	*	*v	*v	*	*	*	*	*	*	*v	*v	*	*	*	*
=4	=4	=4	=4	=4	=4	=4	=4	=4	=4	=4	=4	=4	=4
!	!LO:TX:t=P:problem=dwie oddzielne nuty	!	!	!	!	!	!	!	!	!	!	!	!
8E-/	8E-\	.	.	.	hej-	.	8B-/	8G\	.	hej-	.	hej-	.
8E-/	8AA-\	.	.	.	-że,	.	8c/	8A-\	.	-że	.	-że,	.
4E-/	4E-\	.	.	.	ha!	.	4B-/	4G\	.	ha!	.	ha!	.
=5	=5	=5	=5	=5	=5	=5	=5	=5	=5	=5	=5	=5	=5
!	!	!LO:DY:rj	!	!	!	!	!	!	!LO:DY:rj	!	!	!	!
!LO:SIC:s=(16F/LL:v	!LO:SIC:s=(16D\LL:v	!	!	!	!	!	!	!	!	!	!	!	!
16F/LL	16D\LL	mf	.	.	1. Ko-	4. Kra-	8B-/	8A-\	mf	1. Ko-	4. Kra-	1. Ko-	4. Kra-
!LO:SIC:s=16E-/JJ):v	!LO:SIC:s=16C\JJ):v	!	!	!	!	!	!	!	!	!	!	!	!
16E-/JJ	16C\JJ	.	.	.	.	.	.	.	.	.	.	.	.
4D/	4BB-\	.	.	.	-cha-	-ko-	4B-/	4A-\	.	-cha-	-ko-	-cha-	-ko-
(<16E-/LL	8BB-\	.	.	.	-łem	-wian-	(<16c/LL	8A-\	.	-łem	-wian-	-łem	-wian-
16F/JJ)	.	.	.	.	.	.	16d/JJ)	.	.	.	.	.	.
=6	=6	=6	=6	=6	=6	=6	=6	=6	=6	=6	=6	=6	=6
8G/	8E-\	.	.	.	dziew-	-ko	8e-/	8B-\	.	dziew-	-ko	dziew-	-ko
8B-/	8BB-\	.	.	.	-czy-	lu-	8f/	8d\	.	-czy-	lu-	-czy-	lu-
4B-/	4E-\	.	.	.	-nę,	-ba,	4g/	4e-\	.	-nę,	-ba	-nę,	-ba,
=7	=7	=7	=7	=7	=7	=7	=7	=7	=7	=7	=7	=7	=7
8A-/	8F\	.	.	.	ko-	ślicz-	8B-/	8B-\	.	Ko-	Ślicz-	ko-	ślicz-
4G/	4E-\	.	.	.	-cha-	-na	4B-/	4B-\	.	-cha-	-na	-cha-	-na
!	!	!	!	!	!	!	!LO:SIC:s=(16c/LL:v	!	!	!	!	!	!
8F/	8D\	.	.	.	-łem	z cie-	16c/LL	8B-\	.	-łem	z cie-	-łem	z cie-
!	!	!	!	!	!	!	!LO:SIC:s=16d/JJ):v	!	!	!	!	!	!
.	.	.	.	.	.	.	16d/JJ	.	.	.	.	.	.
=8	=8	=8	=8	=8	=8	=8	=8	=8	=8	=8	=8	=8	=8
8G/	8C\	.	.	.	ją	-bie	8e-/	8c\	.	ją	-bie	ją	-bie
8B-/	8BB-\	.	.	.	wie-	chlu-	8f/	8d\	.	wie-	chlu-	wie-	chlu-
4B-/	4E-\	.	.	.	-le,	-ba,	4g/	4d-X\	.	-le	-ba,	-le,	-ba,
!!LO:LB:g=original
=9	=9	=9	=9	=9	=9	=9	=9	=9	=9	=9	=9	=9	=9
8A-/	8A-\	.	.	.	ko-	pię-	8e-/	8c\	.	Ko-	Pię-	ko-	pię-
4A-/	4C\	.	.	.	-cha-	-knie	4a-/	4e-\	.	-cha-	-knie	-cha-	-knie
8B-/	8BB-\	.	.	.	-łem	w tań-	8g/	8d\	.	-łem	w tań-	-łem	w tań-
=10	=10	=10	=10	=10	=10	=10	=10	=10	=10	=10	=10	=10	=10
4F/	(>8AA-\L	.	.	.	ją,	-cu	(<8f/L	4c\	.	ją	-cu	ją,	-cu
.	8AAn\J)	.	.	.	.	.	8e-/J)	.	.	.	.	.	.
8F/	8BB-\	.	.	.	ko-	cho-	8d/	8B-\	.	ko-	cho-	ko-	cho-
8F/	8E-\	.	.	.	-chał,	-dzisz,	8c/	8A\	.	-chał	-dzisʒ	-chał,	-dzisz,
=11	=11	=11	=11	=11	=11	=11	=11	=11	=11	=11	=11	=11	=11
8F/	8D\	.	.	.	ca-	a-	(16c/LL	8A-X\	.	ca-	A-	ca-	a-
.	.	.	.	.	.	.	16B-/JJ)	.	.	.	.	.	.
4D/	4D\	.	.	.	-łe	-le	4B-/	4F\	.	-łe	-le	-łe	-le
8E-/	8E-\	.	.	.	trzy	chłop-	(16A/LL	(16F#X\LL	.	trzy	chłop-	trzy	chłop-
.	.	.	.	.	.	.	16B-/JJ)	16G\JJ)	.	.	.	.	.
=12	=12	=12	=12	=12	=12	=12	=12	=12	=12	=12	=12	=12	=12
8E-/	8C\	.	.	.	nie-	-ców	8c/	8A-\	.	nie-	-ców	nie-	-ców
8F/	8BB-\	.	.	.	-dzie-	zwo-	8d/	8A-\	.	-dzie-	ʒwo-	-dzie-	zwo-
4E-/	4E-\	.	.	.	-le.	-dzisz.	4e-/	4G\	.	-le.	-dzisʒ.	-le.	-dzisz.
=13	=13	=13	=13	=13	=13	=13	=13	=13	=13	=13	=13	=13	=13
!	!	!LO:DY:rj	!	!	!	!	!	!	!LO:DY:b:rj	!	!	!	!
8D/	8GG\	f	.	.	Jesz-	Że-	8B-/	8G\	f	Jesz-	Że-	Jesz-	Że-
4D/	4FF\	.	.	.	-cze	-byś	4B-/	4A-\	.	-cze	-byś	-cze	-byś
!	!	!	!	!	!	!	!LO:SIC:s=(16c/LL:v	!	!	!	!	!	!
8F/	8BB-\	.	.	.	bę-	mnie	16c/LL	8A-\	.	bę-	mnie	bę-	mnie
!	!	!	!	!	!	!	!LO:SIC:s=16d/JJ):v	!	!	!	!	!	!
.	.	.	.	.	.	.	16d/JJ	.	.	.	.	.	.
=14	=14	=14	=14	=14	=14	=14	=14	=14	=14	=14	=14	=14	=14
8G/	8GG\	.	.	.	-dę	ko-	8e-/	8B-\	.	-dę	ko-	-dę	ko-
8D/	8BB-\	.	.	.	ko-	-cha-	8f/	8B-\	.	ko-	-cha-	ko-	-cha-
4E-/	4E-\	.	.	.	-chał	-ła,	4g/	4B-\	.	-chał	-ła	-chał	-ła,
=15	=15	=15	=15	=15	=15	=15	=15	=15	=15	=15	=15	=15	=15
8G/	8G\	.	.	.	je-	ko-	8B-/	8B-\	.	Je-	Ko-	je-	ko-
4A-/	4F\	.	.	.	-den	-chał-	4B-/	4B-\	.	-den	-chał-	-den	-chał-
8F/	8D\	.	.	.	ty-	-bym	(16c/LL	8B-\	.	ty-	-bym	ty-	-bym
.	.	.	.	.	.	.	16d/JJ)	.	.	.	.	.	.
!!LO:LB:g=original
=16	=16	=16	=16	=16	=16	=16	=16	=16	=16	=16	=16	=16	=16
8G/	8C\	.	.	.	-dzień	cię	8e-/	8c\	.	-dzień	cię	-dzień	cię
8c/	8A-\	.	.	.	ca-	i	8f/	8d\	.	ca-	i	ca-	i
4Bn/	4G\	.	.	.	-ły,	ja,	4g/	4d\	.	-ły	ja	-ły,	ja,
=17	=17	=17	=17	=17	=17	=17	=17	=17	=17	=17	=17	=17	=17
8c/	8c\	.	.	.	a-	a-	8e-/	8e-\	.	A-	A-	a-	a-
4c-X/	4F\	.	.	.	-by	-le	4a-/	4e-\	.	-by	-le	-by	-le
8B-/	8G\	.	.	.	mi	two-	8g/	8e-\	.	mi	two-	mi	two-
=18	=18	=18	=18	=18	=18	=18	=18	=18	=18	=18	=18	=18	=18
(8A-/L	(8A-\L	.	.	.	przy-	-je	(8f/L	(8c-X\L	.	przy-	-je	przy-	-je
8An/J)	8F\J)	.	.	.	.	.	8e-/J)	8c\J)	.	.	.	.	.
8B-/	8BB-\	.	.	.	-zna-	ser-	8d/	8B-\	.	-zna-	ser-	-zna-	ser-
8E-/	8C\	.	.	.	-li,	-ce,	8c/	8A\	.	-li,	-ce	-li,	-ce,
=19	=19	=19	=19	=19	=19	=19	=19	=19	=19	=19	=19	=19	=19
!	!	!	!	!	!	!	!LO:SIC:s=(16c/LL:v	!	!	!	!	!	!
8E-/	8AAn\	.	.	.	żem	[kie-	16c/LL	8F\	.	Żem	Jak	żem	[kie-
!	!	!	!	!	!	!	!LO:SIC:s=16B-/JJ):v	!	!	!	!	!	!
.	.	.	.	.	.	.	16B-/JJ	.	.	.	.	.	.
4E-/	4BB-\	.	.	.	jest	-by]	4B-/	4G\	.	jest	a-	jest	-by]
!	!	!	!	!	!	!	!LO:SIC:s=(16A/LL:v	!LO:SIC:s=(16F#X\LL:v	!	!	!	!	!
8E-/	8BB-\	.	.	.	chło-	au-	16A/LL	16F#X\LL	.	chło-	-u-	chło-	au-
!	!	!	!	!	!	!	!LO:SIC:s=16B-/JJ):v	!LO:SIC:s=16G\JJ):v	!	!	!	!	!
.	.	.	.	.	.	.	16B-/JJ	16G\JJ	.	.	.	.	.
=20	=20	=20	=20	=20	=20	=20	=20	=20	=20	=20	=20	=20	=20
8E-/	8BB-\	.	.	.	-piec	-ste-	8c/	8A-\	.	-piec	-ste-	-piec	-ste-
8A-/	8BB-\	.	.	.	sta-	-ry-	8d/	8B-\	.	sta-	-ry-	sta-	-ry-
8G/	8E-\	.	.	.	-ły.	-ja.	8e-/	8B-\	.	-ły.	-ja.	-ły.	-ja.
!LO:MO:mod=!LO&colon;TX&colon;a&colon;i&colon;t=Fine	!	!	!	!	!	!	!LO:MO:mod=!LO&colon;TX&colon;a&colon;i&colon;t=Fine	!	!	!	!	!	!
!LO:TX:b:t=Fine.	!	!	!	!	!	!	!LO:TX:a:t=Fine.	!	!	!	!	!	!
8r;	8ryy	.	.	.	.	.	8r;	8ryy	.	.	.	.	.
=21!|:	=21!|:	=21!|:	=21!|:	=21!|:	=21!|:	=21!|:	=21!|:	=21!|:	=21!|:	=21!|:	=21!|:	=21!|:	=21!|:
!!!OMD: Più tranquillo.
!!!OMD-mod: Più tranquillo
*>B	*>B	*>B	*	*	*>B	*>B	*>B	*>B	*>B	*>B	*>B	*>B	*>B
!	!	!LO:DY:rj	!	!	!	!	!	!	!LO:DY:b:rj	!	!	!	!
8.G/	8.C\	p	.	.	2. La-	3. Le-	8.e-/	8.c\	p	2. La-	3. Le-	2. La-	3. Le-
16F/	16D\	.	.	.	-ta	-cia-	16d/	16B\	.	-ta	-cia-	-ta	-cia-
8G/	8E-\	.	.	.	pta-	-ły	8c/	8c\	.	pta-	-ły	pta-	-ły
8A-/	8F\	.	.	.	-szek,	żu-	8e-/	8c\	.	-szek	żu-	-szek,	żó-
!!LO:LB:g=original
=22	=22	=22	=22	=22	=22	=22	=22	=22	=22	=22	=22	=22	=22
(8G/L	(8G\L	.	.	.	la-	-ra-	4d/	4B\	.	la-	-ra-	la-	-ra-
[8A-/J	[8A-\J	.	.	.	.	.	.	.	.	.	.	.	.
16A-/LL]	16A-\LL]	.	.	.	-ta,	-wie,	4B/	4B\	.	-ta,	-wie,	-ta,	-wie,
16G/JJ)	16G\JJ)	.	.	.	.	.	.	.	.	.	.	.	.
(16F/LL	(16F\LL	.	.	.	.	.	.	.	.	.	.	.	.
16D/JJ)	16D\JJ)	.	.	.	.	.	.	.	.	.	.	.	.
=23	=23	=23	=23	=23	=23	=23	=23	=23	=23	=23	=23	=23	=23
8D/	8BBn\	.	.	.	sam	pły-	8G/	8G\	.	Sam	Pły-	sam	pły-
8F/	8D\	.	.	.	nie	-nę-	8B/	8G\	.	nie	-nę-	nie	-nę-
!LO:SIC:s=(16G/LL:v	!LO:SIC:s=(16G\LL:v	!	!	!	!	!	!	!	!	!	!	!	!
16G/LL	16G\LL	.	.	.	wie	-ły	8B/	8G\	.	wie	-ły	wie	-ły
!LO:SIC:s=16F/JJ):v	!LO:SIC:s=16F\JJ):v	!	!	!	!	!	!	!	!	!	!	!	!
16F/JJ	16F\JJ	.	.	.	.	.	.	.	.	.	.	.	.
!LO:SIC:s=(16E-/LL:v	!LO:SIC:s=(16E-\LL:v	!	!	!	!	!	!	!	!	!	!	!	!
16E-/LL	16E-\LL	.	.	.	gdzie	ła-	8B/	8G\	.	gdzie	ła-	gdzie	ła-
!LO:SIC:s=16D/JJ):v	!LO:SIC:s=16D\JJ):v	!	!	!	!	!	!	!	!	!	!	!	!
16D/JJ	16D\JJ	.	.	.	.	.	.	.	.	.	.	.	.
=24	=24	=24	=24	=24	=24	=24	=24	=24	=24	=24	=24	=24	=24
4.E-/	(4C\	.	.	.	pad-	-bę-	(8c/	(8G\	.	pad-	-bę-	pad-	-bę-
.	.	.	.	.	.	.	4g/)	4c\)	.	.	.	.	.
.	8AAn\)	.	.	.	.	.	.	.	.	.	.	.	.
8G/	8BBn\	.	.	.	-nie,	-dzie,	8f/	8d\	.	-nie,	-dʒie	-nie,	-dzie,
=25	=25	=25	=25	=25	=25	=25	=25	=25	=25	=25	=25	=25	=25
!	!	!	!	!	!	!	!LO:SIC:s=(16e-/LL:v	!LO:SIC:s=(16c\LL:v	!	!	!	!	!
8G/	8C\	.	.	.	kie-	po-	16e-/LL	16c\LL	.	Kie-	Po-	kie-	po-
!	!	!	!	!	!	!	!LO:SIC:s=16f/JJ):v	!LO:SIC:s=16d\JJ):v	!	!	!	!	!
.	.	.	.	.	.	.	16f/JJ	16d\JJ	.	.	.	.	.
!LO:SIC:s=(16G/LL:v	!LO:SIC:s=(16C\LL:v	!	!	!	!	!	!LO:SIC:s=(16e-/LL:v	!LO:SIC:s=(16c\LL:v	!	!	!	!	!
16G/LL	16C\LL	.	.	.	-dy	-noć	16e-/LL	16c\LL	.	-dy	-noć	-dy	-noć
!LO:SIC:s=16F/JJ):v	!LO:SIC:s=16D\JJ):v	!	!	!	!	!	!LO:SIC:s=16d/JJ):v	!LO:SIC:s=16B\JJ):v	!	!	!	!	!
16F/JJ	16D\JJ	.	.	.	.	.	16d/JJ	16B\JJ	.	.	.	.	.
!	!	!	!	!	!	!	!LO:SIC:s=(16c/LL:v	!LO:SIC:s=(16c\LL:v	!	!	!	!	!
8G/	8E-\	.	.	.	się	już	16c/LL	16c\LL	.	się	już	się	już
!	!	!	!	!	!	!	!LO:SIC:s=16B/JJ):v	!LO:SIC:s=16G\JJ):v	!	!	!	!	!
.	.	.	.	.	.	.	16B/JJ	16G\JJ	.	.	.	.	.
!	!	!	!	!	!	!	!	!LO:TX:t=P:problem=dwie oddzielne nuty	!	!	!	!	!
8G/	(16E-\LL	.	.	.	kto	z ko-	(16c/LL	8c\	.	kto	z ko-	kto	z ko-
.	16C\JJ)	.	.	.	.	.	16e-/JJ)	.	.	.	.	.	.
=26	=26	=26	=26	=26	=26	=26	=26	=26	=26	=26	=26	=26	=26
(<8F#X/	(>8D\	.	.	.	ko-	-cha-	(8e-/	(8c\	.	ko-	-cha-	ko-	-cha-
4G/)	4GG\)	.	.	.	.	.	4d/)	4B\)	.	.	.	.	.
8D/	(16GG\LL	.	.	.	-cha,	-nia	8B/	8G\	.	-cha,	-nia	-cha,	-nia
.	16AAn\JJ)	.	.	.	.	.	.	.	.	.	.	.	.
=27	=27	=27	=27	=27	=27	=27	=27	=27	=27	=27	=27	=27	=27
!	!LO:SIC:s=(16BBn\LL:v	!	!	!	!	!	!	!	!	!	!	!	!
8Fn/	16BBn\LL	.	.	.	wza-	me-	8G/	8G\	.	Wʒa-	Me-	wza-	me-
!	!LO:SIC:s=16C\JJ):v	!	!	!	!	!	!	!	!	!	!	!	!
.	16C\JJ	.	.	.	.	.	.	.	.	.	.	.	.
!	!LO:SIC:s=(16D\LL:v	!	!	!	!	!	!	!	!	!	!	!	!
8G/	16D\LL	.	.	.	-jem-	-go	8g/	8B\	.	-jem-	-go	-jem-	-go
!	!LO:SIC:s=16E-\JJ):v	!	!	!	!	!	!	!	!	!	!	!	!
.	16E-\JJ	.	.	.	.	.	.	.	.	.	.	.	.
8.G/	(16G\LL	.	.	.	-no-	nic	8.g/	8.B\	.	-noś-	nic	-no-	nic
.	16F\	.	.	.	.	.	.	.	.	.	.	.	.
.	16E-\JJ)	.	.	.	.	.	.	.	.	.	.	.	.
16F/	16D\	.	.	.	-ści	nie	16B/	16G\	.	-ci	nie	-ści	nie
=28	=28	=28	=28	=28	=28	=28	=28	=28	=28	=28	=28	=28	=28
!LO:SIC:s=(16F/LL:v	!	!	!	!	!	!	!LO:SIC:s=(16d/LL:v	!LO:SIC:s=(16A-\LL:v	!	!	!	!	!
16F/LL	8C\	.	.	.	prag-	bę-	16d/LL	16A-\LL	.	prag-	bę-	prag-	bę-
!LO:SIC:s=16E-/JJ):v	!	!	!	!	!	!	!LO:SIC:s=16c/JJ):v	!LO:SIC:s=16G\JJ):v	!	!	!	!	!
16E-/JJ	.	.	.	.	.	.	16c/JJ	16G\JJ	.	.	.	.	.
4E-/	4C\	.	.	.	-nie.	-dzie.	4c/	4G\	.	-nie	-dzie	-nie.	-dzie.
!	!	!	!	!	!	!	!LO:MO:mod=!LO&colon;TX&colon;a&colon;i&colon;t=D.C. al Fine	!	!	!	!	!	!
!	!	!	!	!	!	!	!LO:TX:b:t=Krakowiak\nda Capo\nal Fine	!	!	!	!	!	!
!	!LO:MO:mod=!LO&colon;TX&colon;a&colon;i&colon;t=D.C. al Fine	!	!	!	!	!	!	!	!	!	!	!	!
!	!null	!	!	!	!	!	!	!	!	!	!	!	!
8r	8ryy	.	.	.	.	.	8r	8ryy	.	.	.	.	.
*v	*v	*	*	*	*	*	*	*	*	*	*	*	*
*	*	*	*	*	*	*v	*v	*	*	*	*	*
==:|!	==:|!	==:|!	==:|!	==:|!	==:|!	==:|!	==:|!	==:|!	==:|!	==:|!	==:|!
*-	*-	*-	*-	*-	*-	*-	*-	*-	*-	*-	*-
!!!system-decoration: {(s1,s2)}
!!!RDF**kern: > = above
!!!RDF**kern: < = below
!!!filter-modern: humtr -p | sic -sq | shed -e "s/LO:DY:(a|b|rj)/LO:dy:$1/L" | shed -e "s/TX(.*):t=P:/tx$1:t=P:/LG" | modori -m | autostem -r | shed -e "s/yy//" | shed -k -e "s/\(y([^y])/($1/" | shed -e "s/^(\d+[\/\\]right)/$1yy/I; s/^(\d+[\/\\]left)/$1yy/I" | shed -k -e "s/[<>]//g" | shed -k -e "s/r[a-gA-G]+/r/D"
!!!ENC: Tomasz Grochalski
!!!END: 2021-05-22
!!!ENC: Marta Lawrence
!!!END: 2021-05-31
!!!EED-modern: Antoni Szymański
!!!END-modern: 2022-08-17
!!!YEC: Copyright 2022 Narodowy Instytut Fryderyka Chopina (https://polishscores.org)
!!!YEM: Licence CC BY 4.0 (https://creativecommons.org/licenses/by/4.0)
